icons/linear-new-office-data-trend-index.svg

<svg xmlns="http://www.w3.org/2000/svg" width="32px" height="32px" viewBox="0 0 32 32" version="1.1">
    <title>linear-new-office-data-trend-index</title>
    <g id="linear-new-office-data-trend-index" stroke-width="1" fill-rule="evenodd">
        <path d="M5,21 C5.55228475,21 6,21.4477153 6,22 L6,28 C6,28.5522847 5.55228475,29 5,29 C4.44771525,29 4,28.5522847 4,28 L4,22 C4,21.4477153 4.44771525,21 5,21 Z M12,16 C12.5522847,16 13,16.4477153 13,17 L13,28 C13,28.5522847 12.5522847,29 12,29 C11.4477153,29 11,28.5522847 11,28 L11,17 C11,16.4477153 11.4477153,16 12,16 Z M19,19 C19.5522847,19 20,19.4477153 20,20 L20,28 C20,28.5522847 19.5522847,29 19,29 C18.4477153,29 18,28.5522847 18,28 L18,20 C18,19.4477153 18.4477153,19 19,19 Z M26,16 C26.5522847,16 27,16.4477153 27,17 L27,28 C27,28.5522847 26.5522847,29 26,29 C25.4477153,29 25,28.5522847 25,28 L25,17 C25,16.4477153 25.4477153,16 26,16 Z M23,3 L28,3 L28.0752385,3.00278786 L28.2007258,3.02024007 L28.3121425,3.04973809 L28.4232215,3.09367336 L28.5207088,3.14599545 L28.6170223,3.21292769 L28.7071408,3.29291093 C28.7425008,3.32828727 28.774687,3.36567442 28.8036654,3.40469339 L28.8753288,3.5159379 L28.9287745,3.62866398 L28.9641549,3.73400703 L28.9930928,3.8819045 L29,4 L29,9 C29,9.55228475 28.5522847,10 28,10 C27.4477153,10 27,9.55228475 27,9 L27,6.414 L19.7071068,13.7071068 C19.3614453,14.0527683 18.8165466,14.0978655 18.4187618,13.8137335 L12.108,9.306 L4.70710678,16.7071068 C4.34662282,17.0675907 3.77939176,17.0953203 3.38710056,16.7902954 L3.29289322,16.7071068 C2.90236893,16.3165825 2.90236893,15.6834175 3.29289322,15.2928932 L11.2928932,7.29289322 C11.6385547,6.94723174 12.1834534,6.90213454 12.5812382,7.18626653 L18.891,11.693 L25.584,5 L23,5 C22.4871642,5 22.0644928,4.61395981 22.0067277,4.11662113 L22,4 C22,3.44771525 22.4477153,3 23,3 Z" id="&#24418;&#29366;" fill-rule="nonzero" />
    </g>
</svg>

<svg xmlns="http://www.w3.org/2000/svg" viewBox="0 0 32 32"><path fill="currentColor" d="M5 21a1 1 0 0 1 1 1v6a1 1 0 0 1-2 0v-6a1 1 0 0 1 1-1m7-5a1 1 0 0 1 1 1v11a1 1 0 0 1-2 0V17a1 1 0 0 1 1-1m7 3a1 1 0 0 1 1 1v8a1 1 0 0 1-2 0v-8a1 1 0 0 1 1-1m7-3a1 1 0 0 1 1 1v11a1 1 0 0 1-2 0V17a1 1 0 0 1 1-1M23 3h5l.075.003.126.017.111.03.111.044.098.052.096.067.09.08c.036.035.068.073.097.112l.071.11.054.114.035.105.03.148L29 4v5a1 1 0 0 1-2 0V6.414l-7.293 7.293a1 1 0 0 1-1.288.107l-6.311-4.508-7.4 7.401a1 1 0 0 1-1.32.083l-.095-.083a1 1 0 0 1 0-1.414l8-8a1 1 0 0 1 1.288-.107l6.31 4.507L25.584 5H23a1 1 0 0 1-.993-.883L22 4a1 1 0 0 1 1-1"/></svg>
